icons/linear-ele-location-outline.svg

<svg xmlns="http://www.w3.org/2000/svg" width="32px" height="32px" viewBox="0 0 32 32" version="1.1">
    <title>linear-ele-location-outline</title>
    <g id="linear-ele-location-outline" stroke-width="1" fill-rule="evenodd">
        <path d="M16,2 C22.0751322,2 27,6.92486775 27,13 C27,18.2773138 22.7371888,24.7685143 16.9723648,29.4991661 L16,30.2806248 L15.375305,29.7808688 C9.43502872,25.0286478 5,18.38286 5,13 C5,6.92486775 9.92486775,2 16,2 Z M16,4 C11.0294373,4 7,8.02943725 7,13 C7,17.3571281 10.6136034,23.0443495 15.608055,27.3724331 L16,27.705 L16.0569604,27.658929 C21.1116804,23.3925795 24.835169,17.7073315 24.994671,13.2924162 L25,13 C25,8.02943725 20.9705627,4 16,4 Z M16,8 C18.7614237,8 21,10.2385763 21,13 C21,15.7614237 18.7614237,18 16,18 C13.2385763,18 11,15.7614237 11,13 C11,10.2385763 13.2385763,8 16,8 Z M16,10 C14.3431458,10 13,11.3431458 13,13 C13,14.6568542 14.3431458,16 16,16 C17.6568542,16 19,14.6568542 19,13 C19,11.3431458 17.6568542,10 16,10 Z" id="&#24418;&#29366;" fill-rule="nonzero" />
    </g>
</svg>

<svg xmlns="http://www.w3.org/2000/svg" viewBox="0 0 32 32"><path fill="currentColor" d="M16 2c6.075 0 11 4.925 11 11 0 5.277-4.263 11.769-10.028 16.5l-.972.78-.625-.5C9.435 25.03 5 18.384 5 13 5 6.925 9.925 2 16 2m0 2a9 9 0 0 0-9 9c0 4.357 3.614 10.044 8.608 14.372l.392.333.057-.046c5.055-4.266 8.778-9.952 8.938-14.367L25 13a9 9 0 0 0-9-9m0 4a5 5 0 1 1 0 10 5 5 0 0 1 0-10m0 2a3 3 0 1 0 0 6 3 3 0 0 0 0-6"/></svg>
